seregacthtuf/slightly-encumbered-robber.svg

<?xml version="1.0" encoding="UTF-8" standalone="no"?>
<svg
   viewBox="0 0 512 512"
   style="height: 512px; width: 512px;"
   version="1.1"
   id="svg1"
   sodipodi:docname="slightly-encumbered-robber.svg"
   inkscape:version="1.4 (86a8ad7, 2024-10-11)"
   xmlns:inkscape="http://www.inkscape.org/namespaces/inkscape"
   xmlns:sodipodi="http://sodipodi.sourceforge.net/DTD/sodipodi-0.dtd"
   xmlns="http://www.w3.org/2000/svg"
   xmlns:svg="http://www.w3.org/2000/svg">
  <defs
     id="defs1" />
  <sodipodi:namedview
     id="namedview1"
     pagecolor="#000000"
     bordercolor="#000000"
     borderopacity="0.25"
     inkscape:showpageshadow="2"
     inkscape:pageopacity="0.0"
     inkscape:pagecheckerboard="0"
     inkscape:deskcolor="#d1d1d1"
     inkscape:zoom="1.0813762"
     inkscape:cx="181.25052"
     inkscape:cy="248.29472"
     inkscape:window-width="1920"
     inkscape:window-height="1001"
     inkscape:window-x="-9"
     inkscape:window-y="-9"
     inkscape:window-maximized="1"
     inkscape:current-layer="svg1" />
  <g
     class=""
     transform="translate(44.976146,-4.3040707)"
     id="g1"
     style="fill:#ffffff;fill-opacity:1">
    <path
       d="m 249.00195,361.2207 c -3.61095,-0.20607 -7.33154,-0.37824 -11.24218,-0.49023 -7.72081,-0.22111 -15.75395,-0.52628 -23.91407,-1.69336 l -55.47265,62.39258 c 21.25069,14.21911 30.93837,39.91763 70.875,38.50195 l -1.09961,-22.71094 -31.8086,-18.54297 c 15.80453,-26.34224 27.5062,-18.73715 53.77539,-44.30859 -0.0753,-4.88574 -0.47044,-9.22709 -1.11328,-13.14844 z"
       id="path15"
       style="fill:#ffffff;fill-opacity:1" />
    <path
       d="m 235.41797,176.42969 c -8.527,0.283 -15.98167,4.99292 -24.26367,13.66992 -29.706,32.65 -56.17496,92.53361 -24.87696,134.34961 1.8353,3.0087 4.09888,5.4786 6.69727,7.52734 11.73695,9.25418 30.50925,9.73043 49.63086,10.23438 20.47649,0.53966 41.34219,1.12679 54.37305,12.70117 3.67588,35.87211 -4.9881,41.67471 -8.58399,105.25976 70.46704,0.66107 47.71498,1.39169 105.15625,1.57227 l -2.86719,-23.79102 c -23.5818,-14.92554 -43.43024,-10.20051 -64.31836,-11.3125 7.46334,-30.66437 33.495,-74.69759 9,-95.05859 -17.72,-14.73 -30.75867,-23.79295 -50.26367,-36.12695 2.437,-0.69 -6.53668,-19.76828 -7.55469,-21.98828 -29.352,-7.035 -49.36467,-22.81719 -62.13867,-39.36719 l 14.25,-11 c 13.5,17.492 35.28746,33.75264 73.68946,35.93164 19.65,-2.818 29.57893,-6.95413 35.33593,-11.70313 5.626,-4.63999 8.61454,-10.96318 12.89453,-20.61718 1.09501,-6.312 -0.24984,-7.85157 -2.83984,-10.10157 -1.95,-1.696 -5.24611,-3.19846 -8.78711,-4.73046 l -39.02344,23.10351 -4.88476,-6.09375 c -17.46,-21.77 -31.72213,-33.02005 -46.57813,-45.62305 -3.633,-3.94 -7.45222,-6.64793 -12.32422,-6.83593 -0.57316,-0.0197 -1.14754,-0.0197 -1.7207,0 z"
       style="display:inline;paint-order:stroke fill markers;fill:#ffffff;fill-opacity:1"
       id="path9" />
    <path
       d="m 298.119,153.163 c 9.177,12.81 18.397,25.33 28.04,36.72 7.273,-4.386 14.418,-10.424 20.662,-18 0.93407,-1.13991 3.80039,-6.06353 4.67469,-7.2499 z"
       id="path4"
       style="fill:#ffffff;fill-opacity:1" />
    <path
       d="m 362.9471,141.77458 -15.44901,7.60099 -10.83272,-17.63533 z"
       id="path3"
       style="fill:#ffffff;fill-opacity:1" />
    <path
       d="m 336.586,98.038 c -3.507,0.063 -7.26,0.632 -11.217,1.733 -7.08,1.97 -14.577,5.722 -21.718,11.09 l 60.545,12.47 c -0.844,-8.415 -4.142,-15.068 -9.524,-19.503 -4.425,-3.646 -10.055,-5.63 -16.6,-5.785 -0.49,-0.01 -0.987,-0.013 -1.487,-0.004 z"
       id="path2"
       style="fill:#ffffff;fill-opacity:1" />
    <path
       d="m 66.533,96.452 c -22.862,27.542 -36.27,68.923 -37.766,100.702 -0.9,19.145 -0.4,72.616 15.276,91.47 15.674,18.855 50.465,22.678 65.753,25.028 11.256,0.74 19.522,-9.182 25.182,-16.5 9.537,-12.442 19.204,-50.678 29.36,-69.014 10.155,-18.336 20.77,-36.82 33.798,-50.467 13.028,-13.645 30.24,-22.73 49.442,-17.89 3.34,1.09 3.565,1.663 12.38,8.788 12.605,10.736 26.244,21.81 41.694,39.33 l 3.803,3.486 10.238,-6.06 c -20.92,-23.726 -38.623,-51.403 -57.006,-76.168 -27.153,-36.58 -54.84,-65.76 -94.205,-69.893 -36.138,-3.317 -78.585,14.428 -97.95,37.19 z"
       id="path1"
       sodipodi:nodetypes="cccccccccccccccc"
       style="fill:#ffffff;fill-opacity:1" />
  </g>
</svg>

<?xml version="1.0" encoding="UTF-8" standalone="no"?>
<svg
   viewBox="0 0 512 512"
   style="height: 512px; width: 512px;"
   version="1.1"
   id="svg1"
   sodipodi:docname="slightly-encumbered-robber.svg"
   inkscape:version="1.4 (86a8ad7, 2024-10-11)"
   xmlns:inkscape="http://www.inkscape.org/namespaces/inkscape"
   xmlns:sodipodi="http://sodipodi.sourceforge.net/DTD/sodipodi-0.dtd"
   xmlns="http://www.w3.org/2000/svg"
   xmlns:svg="http://www.w3.org/2000/svg">
  <defs
     id="defs1" />
  <sodipodi:namedview
     id="namedview1"
     pagecolor="#000000"
     bordercolor="#000000"
     borderopacity="0.25"
     inkscape:showpageshadow="2"
     inkscape:pageopacity="0.0"
     inkscape:pagecheckerboard="0"
     inkscape:deskcolor="#d1d1d1"
     inkscape:zoom="1.0813762"
     inkscape:cx="158.13183"
     inkscape:cy="248.29472"
     inkscape:window-width="1920"
     inkscape:window-height="1001"
     inkscape:window-x="-9"
     inkscape:window-y="-9"
     inkscape:window-maximized="1"
     inkscape:current-layer="svg1" />
  <path
     d="M 0,0 H 512 V 512 H 0 Z"
     fill="#000000"
     fill-opacity="1"
     id="path1-4"
     style="height:512px;width:512px"
     inkscape:label="path1" />
  <g
     class=""
     transform="translate(44.976146,-4.3040707)"
     id="g1"
     style="fill:#ffffff;fill-opacity:1">
    <path
       id="path15"
       style="fill:#ffffff;fill-opacity:1"
       d="M 157.63909 58.884149 C 123.12912 58.183928 84.687074 75.116055 66.531667 96.454461 C 43.670725 123.99646 30.262004 165.37549 28.766042 197.15368 C 27.866042 216.29868 28.367385 269.77038 44.043385 288.62438 C 59.717385 307.47938 94.507338 311.30173 109.79534 313.65173 C 121.05134 314.39173 129.31893 304.46973 134.97893 297.15173 C 144.51593 284.70973 154.18231 246.47406 164.33831 228.13806 C 174.49331 209.80206 185.10718 191.31826 198.13518 177.67126 C 211.16318 164.02626 228.37654 154.94063 247.57854 159.78063 C 250.91854 160.87063 251.14245 161.4447 259.95745 168.5697 C 272.56245 179.3057 286.20276 190.37977 301.65276 207.89977 L 305.45549 211.38415 L 315.69378 205.32556 C 294.77378 181.59956 277.07092 153.92259 258.68792 129.15759 C 231.53492 92.577586 203.84784 63.396055 164.48284 59.263055 C 162.22421 59.055743 159.93983 58.930832 157.63909 58.884149 z M 336.5844 98.038446 C 333.07796 98.10162 329.32583 98.67007 325.36956 99.770868 C 318.28956 101.74087 310.79181 105.49271 303.65081 110.86071 L 364.19573 123.33141 C 363.35173 114.91641 360.05429 108.26251 354.67229 103.82751 C 350.24729 100.18151 344.61768 98.197352 338.07268 98.042352 C 337.58333 98.032365 337.08569 98.029489 336.58635 98.038446 L 336.5844 98.038446 z M 336.66448 131.73962 L 347.49846 149.37634 L 362.94768 141.77477 L 336.66448 131.73962 z M 298.11956 153.16345 C 307.29656 165.97345 316.51562 178.4922 326.15862 189.8822 C 333.43162 185.4962 340.57673 179.4582 346.82073 171.8822 C 347.7548 170.74229 350.62221 165.81857 351.49651 164.6322 L 298.11956 153.16345 z M 235.41839 176.42907 C 226.89139 176.71207 219.43671 181.42199 211.15471 190.09899 C 181.44871 222.74899 154.97976 282.6326 186.27776 324.4486 C 188.11306 327.4573 190.37664 329.92721 192.97503 331.97595 C 204.71198 341.23013 223.48428 341.70637 242.60589 342.21032 C 263.08238 342.74998 283.94807 343.33711 296.97893 354.91149 C 300.65481 390.7836 291.99084 396.58621 288.39495 460.17126 C 358.86199 460.83233 336.10993 461.56294 393.5512 461.74352 L 390.68401 437.95251 C 367.10221 423.02697 347.25377 427.752 326.36565 426.64001 C 333.82899 395.97564 359.86065 351.94241 335.36565 331.58141 C 317.64565 316.85141 304.60698 307.78846 285.10198 295.45446 C 287.53898 294.76446 278.5653 275.68618 277.54729 273.46618 C 248.19529 266.43118 228.18262 250.64899 215.40862 234.09899 L 229.65862 223.09899 C 243.15862 240.59099 264.94607 256.85163 303.34807 259.03063 C 322.99807 256.21263 332.92701 252.07651 338.68401 247.32751 C 344.31001 242.68752 347.29855 236.36432 351.57854 226.71032 C 352.67355 220.39832 351.3287 218.85876 348.7387 216.60876 C 346.7887 214.91276 343.49259 213.41029 339.95159 211.87829 L 300.92815 234.98181 L 296.04339 228.88806 C 278.58339 207.11806 264.32126 195.86801 249.46526 183.26501 C 245.83226 179.32501 242.01304 176.61707 237.14104 176.42907 C 236.56788 176.40937 235.9935 176.40937 235.42034 176.42907 L 235.41839 176.42907 z M 213.84612 359.03649 L 158.37346 421.42907 C 179.62415 435.64818 189.31183 461.3467 229.24846 459.93102 L 228.14885 437.22009 L 196.34026 418.67712 C 212.14479 392.33488 223.84646 399.93996 250.11565 374.36852 C 250.04035 369.48278 249.64521 365.14144 249.00237 361.22009 C 245.39142 361.01402 241.67082 360.84184 237.76018 360.72985 C 230.03937 360.50874 222.00624 360.20357 213.84612 359.03649 z " />
  </g>
</svg>
